src/4-icons/attach.svg

<svg width="260" height="260" viewBox="0 0 260 260" fill="none" xmlns="http://www.w3.org/2000/svg">
<g opacity="0.9">
<path d="M65.8054 213.33C75.2954 213.33 84.9408 209.508 92.3254 202.072L98.409 195.935L98.5136 196.039L103.089 191.229L123.524 170.584L123.109 170.168L188.083 101.84C193.204 96.458 195.857 89.568 195.857 82.808C195.857 76.9062 193.777 70.978 189.357 66.558C185.119 62.3198 179.451 60.2662 173.835 60.2662C166.919 60.2662 159.925 63.2308 154.647 68.7944L72.9554 154.906L80.4954 162.056L162.161 75.9708C165.541 72.409 169.883 70.6672 173.809 70.6672C177.007 70.6926 179.841 71.759 181.999 73.9172C184.235 76.1526 185.431 79.2726 185.431 82.7836C185.431 86.7872 183.819 91.2072 180.516 94.64L95.6779 183.898L84.9397 194.74C79.5315 200.2 72.5115 202.93 65.8044 202.93C59.8508 202.93 54.2344 200.825 50.0226 196.612C45.7326 192.322 43.5226 186.498 43.5226 180.31C43.5226 173.602 46.149 166.582 51.3744 161.122L97.7579 112.814L147.99 60.8136C156.258 52.2336 166.97 47.9436 177.006 47.9436C185.353 47.97 193.1 50.8554 198.951 56.68C204.983 62.7118 208.024 70.9282 208.051 79.7936C208.051 89.8554 204.021 100.594 196.013 108.992L112.943 195.987L120.456 203.164L203.5 116.168C213.353 105.82 218.398 92.6118 218.424 79.7936C218.424 68.5618 214.473 57.4854 206.283 49.3218C198.353 41.3918 187.744 37.5172 176.981 37.5436C164.007 37.5436 150.669 43.029 140.477 53.5854L90.2454 105.585L94.0154 109.199L90.2718 105.585L43.8618 153.919C36.7382 161.354 33.0972 170.924 33.0972 180.309C33.0972 188.967 36.2172 197.574 42.639 203.995C48.9572 210.287 57.3544 213.355 65.8044 213.329L65.8054 213.33Z" fill="black"/>
</g>
</svg>

<svg width="260" height="260" fill="none" xmlns="http://www.w3.org/2000/svg"><path d="M65.805 213.33c9.49 0 19.136-3.822 26.52-11.258l6.084-6.137.105.104 4.575-4.81 20.435-20.645-.415-.416 64.974-68.328c5.121-5.382 7.774-12.272 7.774-19.032 0-5.902-2.08-11.83-6.5-16.25-4.238-4.238-9.906-6.292-15.522-6.292-6.916 0-13.91 2.965-19.188 8.528l-81.692 86.112 7.54 7.15 81.666-86.085c3.38-3.562 7.722-5.304 11.648-5.304 3.198.026 6.032 1.092 8.19 3.25 2.236 2.236 3.432 5.356 3.432 8.867 0 4.003-1.612 8.423-4.915 11.856l-84.838 89.258L84.94 194.74c-5.409 5.46-12.428 8.19-19.136 8.19-5.953 0-11.57-2.105-15.781-6.318-4.29-4.29-6.5-10.114-6.5-16.302 0-6.708 2.626-13.728 7.851-19.188l46.384-48.308 50.232-52c8.268-8.58 18.98-12.87 29.016-12.87 8.347.026 16.094 2.911 21.945 8.736 6.032 6.032 9.073 14.248 9.1 23.114 0 10.061-4.03 20.8-12.038 29.198l-83.07 86.995 7.513 7.177 83.044-86.996c9.853-10.348 14.898-23.556 14.924-36.374 0-11.232-3.951-22.309-12.141-30.472-7.93-7.93-18.539-11.805-29.302-11.778-12.974 0-26.312 5.485-36.504 16.041l-50.232 52 3.77 3.614-3.743-3.614-46.41 48.334c-7.124 7.435-10.765 17.005-10.765 26.39 0 8.658 3.12 17.265 9.542 23.686 6.318 6.292 14.715 9.36 23.165 9.334l.001.001Z" fill="#000" opacity=".9"/></svg>
